X: 11
M: 6/4
L: 1/8
K: G
ef |\
g3dB2 g3dB2 | g3dB2 A4ef |\
g3dB2 g3dB2 | g3dB2 G4 |]
e2 |\
d2BcdB d2BcdB | d2BcdB A4e2 |\
d2BcdB d2BcdB | d2BcdB G4 |]
ef |\
g2B2g2 B2g2B2 | g2B2g2 A4e2 |\
g2B2g2 B2g2B2 | g2B2g2 G4e2 |]
ed |\


